X:1
T:Title
%%score { ( 1 4 ) | ( 2 3 ) }
L:1/8
M:3/4
K:D
V:1 treble nm="Grand Piano"
V:4 treble 
V:2 bass 
V:3 bass 
V:1
 z2 z2[Q:1/4=100] (3D-[DF]A | [FA]3 [FA] [GB][FA] | [FA]4 [FA]2 |[M:4/4] [Fd]3 c B2 d2 | %4
 [FA]4 z2 [FA]2 |[M:3/4] [FA]4 [Fd]2 |[M:2/4] [Fd]4 |[M:1/4] A z |[M:3/4] [Ff]4 [Fd]2 | %9
 [FA]3 [FA] [GB]A | [FA]4 z E |[M:4/4] [A,DF]3 [B,DG] (3[A,D-F][DE]D DE |[M:3/4] D4 (3D-[DF]A | %13
 [FA]3 [FA] [GB][FA] | [FA]4 [Fd]2 | [Ff]4 [Fd]2 | [FA]3 [FA] [GB][FA] | [FA]4 z E | %18
[M:4/4] [A,DF]3 [B,DG] (3[A,D-F][DE]D DE |[M:2/4] D4 |] %20
V:2
 z2 z2 (3F,A,D | [D,D]3 [D,D] [D,D][D,D] | [D,D]4 [D,D]2 | %3
[M:4/4] [D,A,]3 [F,A,D] [G,D]2 [G,,B,D]2 | [D,D]4 z2 [D,D]2 |[M:3/4] [D,D]4 [D,A,]2 | %6
[M:2/4] [D,A,]4 |[M:1/4] z[K:treble] d |[M:3/4][K:bass] [D,A,]4 [D,A,]2 | [D,D]3 [D,D] [D,D][D,D] | %10
 [D,D]4 F,G, |[M:4/4] D,3 G,, (3z G,F, F,G, |[M:3/4] [D,F,A,]4 (3F,A,D | [D,D]3 [D,D] [D,D][D,D] | %14
 [D,D]4 [D,A,]2 | [D,A,]4 [D,A,]2 | [D,D]3 [D,D] [D,D][D,D] | [D,D]4 F,G, | %18
[M:4/4] D,3 G,, (3z G,F, F,G, |[M:2/4] [D,F,A,]4 |] %20
V:3
 z2 z2 D,2 | x6 | x6 |[M:4/4] x8 | x8 |[M:3/4] x6 |[M:2/4] x4 |[M:1/4] D,2[K:treble] | %8
[M:3/4][K:bass] x6 | x6 | z2 z2 D,2 |[M:4/4] z4 A,,2 [A,,A,]2 |[M:3/4] z2 z2 D,2 | x6 | x6 | x6 | %16
 x6 | z2 z2 D,2 |[M:4/4] z4 A,,2 [A,,A,]2 |[M:2/4] x4 |] %20
V:4
 x6 | x6 | x6 |[M:4/4] x8 | x8 |[M:3/4] x6 |[M:2/4] x4 |[M:1/4] [A,F]2 |[M:3/4] x6 | x6 | %10
 z2 z2 D2 |[M:4/4] x8 |[M:3/4] x6 | x6 | x6 | x6 | x6 | z2 z2 D2 |[M:4/4] x8 |[M:2/4] x4 |] %20

